X:1012
T:The Lady's Breist Knot
P:The Lady's Breist Knot
C:Adapted from song by John Sinclair
R:Strathspey (8x16)
B:RSCDS 10-12
Z:Anselm Lingnau <anselm@strathspey.org>
M:C
L:1/8
K:A
e|"A"A>B c<e "D"d>e f<a|"A"e>cA>c "E7"B2e2|\
  "A"A>B c<e "D"d>e f<a|"E"e>dB>e "A"c2 Ae|
  "A"A>B c<e "D"d>e f<a|"A"e>cA>c "E7"B2e2|\
  "A"A>B c<e "D"d>e f<a|"E"e>dB>e "A"c2 A||
E|"A"A>G "D"A>F "A"E<c A>B|A>G "D"A<F "A"E>c A>B|\
  c>dc>B "D"c<ag>f|"B"^d<Bc>d "E"e2 "E7"F>G|
  "A"A>B c<e "D"d>e f<a|"A"e>cA>c "E7"B2e>E|\
  "A"A>B c<e "D"d>e f<a|"E7"e>cB>e "A"c2 A|]
